X:1
T:Title
%%score { ( 1 3 ) | ( 2 4 ) }
L:1/8
Q:1/4=100
M:4/4
K:Eb
V:1 treble nm="Grand Piano"
V:3 treble 
V:2 bass 
V:4 bass 
V:1
 GGG[FA] [GB][Ge][Bd][Ac] | [GB]>[Ac] [GB][EG] [GB]4 | A A2 A [DA] [Ad]3 | %3
w: O.~A.~Miller * * * * * * *|||
 [Gc] [GB]2 [FA] [EG] [GB]3 | GGG[FA] [GB][Ge][Bd][Ac] | [GB]>[Ac] [GB][EG] [GB]4 | =A A2 B cedc | %7
w: ||||
 B-[EB-][FB-][GB] [DAB]4 | dddd dd[Ad][Ad] | [Ge][Ge][Bd][Ac] [GB]4 | dddd dd[Ad][Ad] | %11
w: ||||
 [Ge][Ge][Bd][Ac] [GB]4 | A A2 A [DA] [Ad]3 | [Gc] [GB]2 [FA] [EG] [GB]2 e |[M:17/16] dcBAGcB3/2F | %15
w: ||||
[M:4/4] GAG[DF] E4 |] %16
w: |
V:2
 [E,B,E][E,B,E][E,B,E][E,B,] [E,E][E,B,][E,E][E,E] | [E,E]>[E,E] [E,E][E,B,] [E,E]4 | %2
 [F,B,D] [F,B,D]2 [F,B,D] [B,,B,] [B,,B,]3 | [E,B,] [E,B,]2 [B,,B,] [E,B,] [E,E]3 | %4
 [E,B,E][E,B,E][E,B,E][E,B,] [E,E][E,B,][E,E][E,E] | [E,E]>[E,E] [E,E][E,B,] [E,E]4 | %6
 [F,CF] [F,CE]2 [F,B,D] [F,=A,F]2 [F,B,F][F,A,E] | z CDE B,,4 | %8
 [B,A][B,A][B,A][CA] [B,A][A,B,A][K:bass][G,B,][F,B,] | [E,B,][E,B,][E,E][E,E] [E,E]4 | %10
 [B,A][B,A][B,A][CA] [B,A][A,B,A][K:bass][G,B,][F,B,] | [E,B,][E,B,][E,E][E,E] [E,E]4 | %12
 [F,B,D] [F,B,D]2 [F,B,D] [B,,B,] [B,,B,]3 | [E,B,] [E,B,]2 [E,B,] [E,B,] [E,E]2[K:treble] [EG] | %14
[M:17/16] [DB][CA][B,G][A,F][G,E][CA][B,G]3/2[K:bass][A,CE] | %15
[M:4/4] [G,B,E][F,B,D][E,B,E][B,,A,] [E,G,]4 |] %16
V:3
 x8 | x8 | x8 | x8 | x8 | x8 | x8 | .[B,D]2 z2 z4 | x8 | x8 | x8 | x8 | x8 | x8 |[M:17/16] x17/2 | %15
[M:4/4] x8 |] %16
V:4
 x8 | x8 | x8 | x8 | x8 | x8 | x8 | B,,4 z4 | x6[K:bass] x2 | x8 | x6[K:bass] x2 | x8 | x8 | %13
 x7[K:treble] x |[M:17/16] x15/2[K:bass] x |[M:4/4] x8 |] %16

